X: 16467
T: Hag With The Money, The
R: jig
M: 6/8
K: Dmixolydian
Adc A3|AGE G3|Adc A3|GEA GED|
Adc A3|AGE G3|AGE cde|dcA GEA|
Ddd A3|AGE G3|Adc ABG|AGE GEA|
Ddd A3|AGE G3|AGE cde|dAA GEA||
ABc dB/c/d|fed e3|ABc dB/c/d|eag edc|
ABc deg|f2d efg|a2e cde|dcA GEA|
ABc dB/c/d|fed e3|ABc dB/c/d|eag edc|
ABc dcd|efd efg|aee cde|dcA GEA||

